X:1
T: Jackie Lindsay
C:Muriel A Johnstone
R:Jig
%Q:180
K:D
M:6/8
L:1/16
A2|D2F2A2 d4f2|e2d2e2 f4A2|B2c2d2 A2c2d2|A2G2F2 E2F2E2|D2F2A2 d4f2|e2d2e2 f4d2|b4b2 a2f2e2|f2d2d2 d4A2|
D2F2A2 d4f2|e2d2e2 f4A2|B2c2d2 A2c2d2|A2G2F2 E2F2E2|D2F2A2 d4f2|e2d2e2 f4d2|b4b2 a2f2e2|f2d2d2 d4A2|
A,2C2E2 A4c2|B2A2B2 c2d2e2|f3df2 e3ce2|e2f2e2 c3Bc2|A,2C2E2 A4c2|B2A2B2 c2d2e2|f4f2 e2f2^g2|a2e2c2 A2G2E2|
D2F2A2 d4f2|e2d2e2 f2g2a2|b2c2d2 a2c2d2|a2g2f2 e2f2e2|d2A2F2 D4F2|E2D2E2 F4A2|B4B2 A2B2c2|d2A2F2 D4||
